dist/img/logo.svg

<svg width="117" height="40" viewBox="0 0 117 40" fill="none" xmlns="http://www.w3.org/2000/svg">
<path d="M32.163 18.3038C32.163 15.1935 32.9519 12.7232 34.5296 10.8931C36.1073 9.06292 38.3837 8.14785 41.3588 8.14785C43.0718 8.14785 44.5233 8.41381 45.7133 8.94572C46.9034 9.47764 47.7418 10.2485 48.2286 11.2582C48.5532 11.9253 48.4991 12.3761 48.0664 12.6105L46.4436 13.476C45.8756 13.7825 45.4068 13.6112 45.0371 12.9621C44.8027 12.5474 44.3655 12.1733 43.7254 11.8397C43.0943 11.5061 42.3505 11.3393 41.4941 11.3393C39.6008 11.3393 38.2755 11.9389 37.5182 13.1379C36.7609 14.328 36.3823 16.0499 36.3823 18.3038C36.3823 20.5577 36.7609 22.2842 37.5182 23.4832C38.2755 24.6733 39.6008 25.2683 41.4941 25.2683C42.5128 25.2683 43.3693 25.0384 44.0635 24.5786C44.7667 24.1188 45.2535 23.6816 45.524 23.2669C45.9657 22.5907 46.4346 22.4194 46.9304 22.753L48.5532 23.8348C48.995 24.1323 49.04 24.5831 48.6884 25.1872C48.1655 26.0887 47.2685 26.8595 45.9973 27.4996C44.7261 28.1397 43.18 28.4598 41.3588 28.4598C38.4288 28.4598 36.1614 27.5447 34.5566 25.7146C32.9609 23.8844 32.163 21.4142 32.163 18.3038ZM51.339 18.3038C51.339 15.1935 52.1414 12.7232 53.7461 10.8931C55.3509 9.06292 57.6408 8.14785 60.6159 8.14785C63.5911 8.14785 65.881 9.06292 67.4858 10.8931C69.0905 12.7232 69.8929 15.1935 69.8929 18.3038C69.8929 21.4142 69.0905 23.8844 67.4858 25.7146C65.881 27.5447 63.5911 28.4598 60.6159 28.4598C57.6408 28.4598 55.3509 27.5447 53.7461 25.7146C52.1414 23.8844 51.339 21.4142 51.339 18.3038ZM55.5582 18.3038C55.5582 20.5577 55.9594 22.2842 56.7618 23.4832C57.5732 24.6733 58.8579 25.2683 60.6159 25.2683C62.374 25.2683 63.6542 24.6733 64.4566 23.4832C65.2679 22.2842 65.6736 20.5577 65.6736 18.3038C65.6736 16.0499 65.2679 14.328 64.4566 13.1379C63.6542 11.9389 62.374 11.3393 60.6159 11.3393C58.8579 11.3393 57.5732 11.9389 56.7618 13.1379C55.9594 14.328 55.5582 16.0499 55.5582 18.3038ZM74.1663 28C73.5352 28 73.2196 27.6619 73.2196 26.9858V9.62188C73.2196 8.94572 73.5352 8.60764 74.1663 8.60764H78.088C78.6109 8.60764 78.985 8.96826 79.2104 9.6895L82.8752 21.5494C83.0375 22.0633 83.1502 22.487 83.2133 22.8206C83.2764 23.1451 83.3305 23.5328 83.3756 23.9836H83.4567C83.5018 23.5328 83.5559 23.1451 83.619 22.8206C83.6821 22.487 83.7948 22.0633 83.9571 21.5494L87.6219 9.6895C87.8473 8.96826 88.2214 8.60764 88.7443 8.60764H92.6661C93.2972 8.60764 93.6127 8.94572 93.6127 9.62188V26.9858C93.6127 27.6619 93.2972 28 92.6661 28H90.6105C89.9795 28 89.6639 27.6619 89.6639 26.9858V15.8155C89.6639 15.2746 89.6865 14.7337 89.7315 14.1927H89.6369L85.7286 26.9046C85.5033 27.6349 85.1156 28 84.5656 28H82.2667C81.7167 28 81.3291 27.6349 81.1037 26.9046L77.1955 14.1927H77.1008C77.1459 14.7337 77.1684 15.2746 77.1684 15.8155V26.9858C77.1684 27.6619 76.8529 28 76.2218 28H74.1663ZM97.9402 19.9266V9.35142C97.9402 8.85557 98.2557 8.60764 98.8868 8.60764H100.942C101.573 8.60764 101.889 8.85557 101.889 9.35142V19.7914C101.889 22.2256 102.245 23.7492 102.957 24.3622C103.679 24.9663 104.49 25.2683 105.391 25.2683C106.293 25.2683 107.1 24.9663 107.812 24.3622C108.533 23.7492 108.894 22.2256 108.894 19.7914V9.35142C108.894 8.85557 109.21 8.60764 109.841 8.60764H111.896C112.527 8.60764 112.843 8.85557 112.843 9.35142V19.9266C112.843 23.082 112.176 25.2953 110.841 26.5665C109.507 27.8287 107.69 28.4598 105.391 28.4598C103.093 28.4598 101.276 27.8287 99.9416 26.5665C98.6073 25.2953 97.9402 23.082 97.9402 19.9266Z" fill="#323232"/>
<rect x="15.7997" y="3.27441" width="9.25678" height="23.084" rx="4.62839" transform="rotate(31.8585 15.7997 3.27441)" fill="#4A3503"/>
<rect y="5.35352" width="8.581" height="23.7962" rx="4.2905" transform="rotate(-15.9172 0 5.35352)" fill="#7B61FF"/>
<rect x="12.3243" y="5.58594" width="8.581" height="23.7962" rx="4.2905" transform="rotate(-15.9172 12.3243 5.58594)" fill="#FE9563"/>
</svg>

<svg width="117" height="40" fill="none" xmlns="http://www.w3.org/2000/svg"><path d="M32.163 18.304c0-3.11.789-5.58 2.367-7.41 1.577-1.831 3.854-2.746 6.829-2.746 1.713 0 3.164.266 4.354.798s2.029 1.303 2.516 2.312c.324.667.27 1.118-.163 1.353l-1.622.865c-.568.306-1.037.135-1.407-.514-.234-.415-.672-.789-1.312-1.122-.63-.334-1.375-.5-2.23-.5-1.894 0-3.22.599-3.977 1.798-.757 1.19-1.136 2.912-1.136 5.166 0 2.254.379 3.98 1.136 5.18.758 1.19 2.083 1.784 3.976 1.784 1.019 0 1.875-.23 2.57-.69.703-.46 1.19-.896 1.46-1.311.442-.676.91-.848 1.406-.514l1.623 1.082c.442.297.487.748.135 1.352-.523.902-1.42 1.672-2.69 2.313-1.272.64-2.818.96-4.64.96-2.93 0-5.197-.915-6.801-2.745-1.596-1.83-2.394-4.3-2.394-7.411zm19.176 0c0-3.11.802-5.58 2.407-7.41 1.605-1.831 3.895-2.746 6.87-2.746s5.265.915 6.87 2.745c1.605 1.83 2.407 4.3 2.407 7.41 0 3.111-.802 5.581-2.407 7.412-1.605 1.83-3.895 2.745-6.87 2.745s-5.265-.915-6.87-2.745c-1.605-1.83-2.407-4.3-2.407-7.411zm4.22 0c0 2.254.4 3.98 1.203 5.18.811 1.19 2.096 1.784 3.854 1.784s3.038-.595 3.84-1.785c.812-1.199 1.218-2.925 1.218-5.18 0-2.253-.406-3.975-1.217-5.165-.803-1.2-2.083-1.799-3.841-1.799s-3.043.6-3.854 1.799c-.803 1.19-1.204 2.912-1.204 5.166zM74.165 28c-.63 0-.946-.338-.946-1.014V9.622c0-.676.315-1.014.946-1.014h3.922c.523 0 .897.36 1.122 1.082l3.665 11.86c.162.513.275.937.338 1.27.063.325.118.713.163 1.164h.08c.046-.451.1-.839.163-1.163.063-.334.176-.758.338-1.272l3.665-11.86c.225-.72.6-1.081 1.122-1.081h3.922c.631 0 .947.338.947 1.014v17.364c0 .676-.316 1.014-.947 1.014H90.61c-.632 0-.947-.338-.947-1.014v-11.17c0-.541.022-1.082.067-1.623h-.094l-3.908 12.712c-.226.73-.613 1.095-1.163 1.095h-2.3c-.55 0-.937-.365-1.162-1.095l-3.909-12.712H77.1c.045.54.067 1.082.067 1.623v11.17c0 .676-.315 1.014-.946 1.014h-2.056zm23.774-8.073V9.35c0-.495.316-.743.947-.743h2.055c.631 0 .947.248.947.743v10.44c0 2.435.356 3.958 1.068 4.571.722.604 1.533.906 2.434.906.902 0 1.709-.302 2.421-.906.721-.613 1.082-2.136 1.082-4.57V9.351c0-.496.316-.744.947-.744h2.055c.631 0 .947.248.947.743v10.576c0 3.155-.667 5.368-2.002 6.64-1.334 1.262-3.151 1.893-5.45 1.893-2.298 0-4.115-.631-5.45-1.893-1.334-1.272-2-3.485-2-6.64z" fill="#323232"/><rect x="15.8" y="3.274" width="9.257" height="23.084" rx="4.628" transform="rotate(31.858 15.8 3.274)" fill="#4A3503"/><rect y="5.354" width="8.581" height="23.796" rx="4.29" transform="rotate(-15.917 0 5.354)" fill="#7B61FF"/><rect x="12.324" y="5.586" width="8.581" height="23.796" rx="4.29" transform="rotate(-15.917 12.324 5.586)" fill="#FE9563"/></svg>
